!!!COM: Vivaldi, Antonio Lucio
!!!CDT: 1678/03/04-1741/08/28
!!!OPR: 12 sonatas for two violins and basso continuo
!!!OTL: Sonata in E-flat major, op. @{OPS}, no. @{ONM} (@{SCT})
!!!OPS: 1
!!!ONM: 7
!!!OMV: 4. Giga
!!!SCT: RV 73
!!!SCA: Antonio Vivaldi: Thematisch-systematisches Verzeichnis seiner Werke (Ryom-Verzeichnis)
!!!OMD: Presto
!!!key: E-
!!!ONB: Violin 2 part originally written in 4/4
**kern	**dynam	**fb	**kern	**dynam	**kern	**dynam
*part3	*	*	*part2	*	*part1	*
*staff3	*	*	*staff2	*	*staff1	*
*ICstr&ICklav	*	*	*ICstr	*	*ICstr	*
*Icello&Icemba	*	*	*Ivioln	*	*Ivioln	*
*	*	*	*I#2	*	*I#1	*
*I"Violoncello\nContinuo	*	*	*I"Violin 2	*	*I"Violin 1	*
*I'bc	*	*	*I'v2	*	*I'v1	*
*>[I,A,A,B,B1,B,B2]	*>[I,A,A,B,B1,B,B2]	*>[I,A,A,B,B1,B,B2]	*>[I,A,A,B,B1,B,B2]	*>[I,A,A,B,B1,B,B2]	*>[I,A,A,B,B1,B,B2]	*>[I,A,A,B,B1,B,B2]
*>norep[I,A,B,B2]	*>norep[I,A,B,B2]	*>norep[I,A,B,B2]	*>norep[I,A,B,B2]	*>norep[I,A,B,B2]	*>norep[I,A,B,B2]	*>norep[I,A,B,B2]
*>I	*>I	*>I	*>I	*>I	*>I	*>I
*clefF4	*	*	*clefG2	*	*clefG2	*
*	*	*	*	*	*	*
*M12/8	*	*	*M12/8	*	*M12/8	*
*MM225	*	*	*MM225	*	*MM225	*
*E-:	*	*	*E-:	*	*E-:	*
=1	=1	=1	=1	=1	=1	=1
4.r	.	.	4.r	.	8r	.
.	.	.	.	.	8r	.
.	.	.	.	.	8ee-y\	.
=!|:	=!|:	=!|:	=!|:	=!|:	=!|:	=!|:
*>A	*>A	*>A	*>A	*>A	*>A	*>A
4.E-y\	.	.	4.b-y\	.	(8ee-y\L	.
.	.	.	.	.	8ff\)	.
.	.	.	.	.	8gg\J	.
4.BB-y/	.	.	4.dd\	.	(8ff\L	.
.	.	.	.	.	8dd\)	.
.	.	.	.	.	8cc\J	.
4.D\	.	6	4.ff\	.	(8b-y\L	.
.	.	.	.	.	8bb-y\)	.
.	.	.	.	.	8aa-X\J	.
=2	=2	=2	=2	=2	=2	=2
4.E-y\	.	.	4.b-y\	.	(8gg\L	.
.	.	.	.	.	8ff\)	.
.	.	.	.	.	8ee-y\J	.
4.GG/	.	6	4.ee-y\	.	(8b-y\L	.
.	.	.	.	.	8ee-y\)	.
.	.	.	.	.	8b-y\J	.
4.AA-X/	.	6 5	4.f/	.	(8cc\L	.
.	.	.	.	.	8dd\)	.
.	.	.	.	.	8ee-y\J	.
4.BB-y/	.	.	4.b-y\	.	(8f/L	.
.	.	.	.	.	8e-y/)	.
.	.	.	.	.	8d/J	.
=3	=3	=3	=3	=3	=3	=3
4.EE-y/	.	.	4.g/	.	4.e-y/	.
4.E-y\	.	.	2.b-y\	.	8gg\L	.
.	.	.	.	.	8ee-y\	.
.	.	.	.	.	8gg\J	.
4.D\	.	6	.	.	8ff\L	.
.	.	.	.	.	8dd\	.
.	.	.	.	.	8b-y\J	.
4.AA/	.	5-r	4.cc\	.	8ee-y\L	.
.	.	.	.	.	8cc\	.
.	.	.	.	.	8ee-y\J	.
=4	=4	=4	=4	=4	=4	=4
4.BB-y/	.	.	4.f/	.	8dd\L	.
.	.	.	.	.	8cc\	.
.	.	.	.	.	8b-y\J	.
4.D\	.	6	4.b-y\	.	8ff\L	.
.	.	.	.	.	8dd\	.
.	.	.	.	.	8b-y\J	.
4.C/	.	7	4.ee-y\	.	8gg\L	.
.	.	.	.	.	8ee-y\	.
.	.	.	.	.	8cc\J	.
4.F\	.	.	4.cc\	.	8aa\L	.
.	.	.	.	.	8ff\	.
.	.	.	.	.	8cc\J	.
!!LO:LB:g=original
=5	=5	=5	=5	=5	=5	=5
4.D\	.	6	4.ff\	.	8bb-y\L	.
.	.	.	.	.	8dd\	.
.	.	.	.	.	8b-y\J	.
4.BB-y/	.	.	4.bb-y\	.	8ff\L	.
.	.	.	.	.	8dd\	.
.	.	.	.	.	8b-y\J	.
4.E-y\	.	6 5	4.cc\	.	8gg\L	.
.	.	.	.	.	8aa\	.
.	.	.	.	.	8bb-y\J	.
4.F\	.	.	4.ff\	.	8cc\L	.
.	.	.	.	.	8b-y\	.
.	.	.	.	.	8a\J	.
=6	=6	=6	=6	=6	=6	=6
4.BB-y/	.	.	4.dd\	.	4b-y\	.
.	.	.	.	.	8ee-y\	.
=:|!|:	=:|!|:	=:|!|:	=:|!|:	=:|!|:	=:|!|:	=:|!|:
*>B	*>B	*>B	*>B	*>B	*>B	*>B
4.E-y\	.	.	4.gg\	.	8ee-y\L	.
.	.	.	.	.	8ff\	.
.	.	.	.	.	8gg\J	.
2.F\	.	5 -	4.cc\	.	8aa-X\L	.
.	.	.	.	.	8ff\	.
.	.	.	.	.	8ee-y\J	.
.	.	6	4.aa-X\	.	8dd\L	.
.	.	.	.	.	8ee-y\	.
.	.	.	.	.	8cc\J	.
=7	=7	=7	=7	=7	=7	=7
4.G\	.	n	4.dd\	.	8bn/L	.
.	.	.	.	.	8a/	.
.	.	.	.	.	8g/J	.
4.E-y\	.	6	2.cc\	.	8gg\L	.
.	.	.	.	.	8ff\	.
.	.	.	.	.	8ee-y\J	.
4.F\	.	6 5 -	.	.	8aa-X\L	.
.	.	.	.	.	8ff\	.
.	.	.	.	.	8ee-y\J	.
4.G\	.	n	4.bn\	.	8dd\L	.
.	.	.	.	.	8cc\	.
.	.	.	.	.	8dd\J	.
=8	=8	=8	=8	=8	=8	=8
4.C/	.	.	4.cc\	.	4.cc\	.
4.E-y\	.	6	4.g/	.	8cc\L	.
.	.	.	.	.	8dd\	.
.	.	.	.	.	8ee-y\J	.
2.AAn/	.	6 5-r	2.cc\	.	8f/L	.
.	.	.	.	.	8an/	.
.	.	.	.	.	8cc/J	.
.	.	.	.	.	8ff\L	.
.	.	.	.	.	8cc\	.
.	.	.	.	.	8ff\J	.
!!LO:LB:g=original
=9	=9	=9	=9	=9	=9	=9
4.BB-y/	.	.	2.f/	.	8dd\L	.
.	.	.	.	.	8cc\	.
.	.	.	.	.	8b-y\J	.
4.AA-X/	.	6 4	.	.	8b-y\L	.
.	.	.	.	.	8cc\	.
.	.	.	.	.	8dd\J	.
4.GG/	.	6	2.b-y\	.	8ee-y\L	.
.	.	.	.	.	8b-y\	.
.	.	.	.	.	8ee-y\J	.
4.G\	.	.	.	.	8ee-y\L	.
.	.	.	.	.	8b-y\	.
.	.	.	.	.	8ee-y\J	.
=10	=10	=10	=10	=10	=10	=10
4.A-X\	.	5	2.e-y/	.	8cc\L	.
.	.	.	.	.	8ee-y\	.
.	.	.	.	.	8dd\J	.
4.AA-X/	.	.	.	.	8cc\L	.
.	.	.	.	.	8dd\	.
.	.	.	.	.	8ee-y\J	.
4.An\	.	6	2.cc\	.	8ff\L	.
.	.	.	.	.	8cc\	.
.	.	.	.	.	8ff\J	.
4.AAn/	.	.	.	.	8ff\L	.
.	.	.	.	.	8cc\	.
.	.	.	.	.	8ff\J	.
=11	=11	=11	=11	=11	=11	=11
4.B-y\	.	5	2.f/	.	8dd\L	.
.	.	.	.	.	8ff\	.
.	.	.	.	.	8ee-y\J	.
4.BB-y/	.	.	.	.	8dd\L	.
.	.	.	.	.	8ee-y\	.
.	.	.	.	.	8ff\J	.
4.Bn\	.	6	2.dd\	.	8gg\L	.
.	.	.	.	.	8dd\	.
.	.	.	.	.	8gg\J	.
4.BBn/	.	.	.	.	8gg\L	.
.	.	.	.	.	8dd\	.
.	.	.	.	.	8gg\J	.
=12	=12	=12	=12	=12	=12	=12
4.c\	.	5	2.g/	.	8ee-y\L	.
.	.	.	.	.	8gg\	.
.	.	.	.	.	8ff\J	.
4.C/	.	.	.	.	8ee-y\L	.
.	.	.	.	.	8ff\	.
.	.	.	.	.	8gg\J	.
4.F\	.	-	[2.f/	.	8aa-X\L	.
.	.	.	.	.	8gg\	.
.	.	.	.	.	8aa-y\J	.
4.An\	.	6	.	.	8ff\L	.
.	.	.	.	.	8ee-y\	.
.	.	.	.	.	8ff\J	.
!!LO:LB:g=original
=13	=13	=13	=13	=13	=13	=13
4.B-y\	.	.	4.f/]	.	8dd\L	.
.	.	.	.	.	8cc\	.
.	.	.	.	.	8b-y\J	.
4.G\	.	6	4.b-y\	.	8b-y/L	.
.	.	.	.	.	8g/	.
.	.	.	.	.	8e-y/J	.
4.F\	.	-	2.a-X/	.	8cc/L	.
.	.	.	.	.	8a-X/	.
.	.	.	.	.	8f/J	.
4.BB-y/	.	7-r	.	.	8dd/L	.
.	.	.	.	.	8b-y/	.
.	.	.	.	.	8f/J	.
=14	=14	=14	=14	=14	=14	=14
4.EE-y/	.	.	4.g/	.	8ee-y/L	.
.	.	.	.	.	8g/	.
.	.	.	.	.	8e-y/J	.
4.G\	.	6	4.ee-y\	.	8b-y/L	.
.	.	.	.	.	8g/	.
.	.	.	.	.	8e-y/J	.
4.A-X\	.	6 5	4.f/	.	8cc\L	.
.	.	.	.	.	8dd\	.
.	.	.	.	.	8ee-y\J	.
4.B-y\	.	.	4.b-y\	.	8f/L	.
.	.	.	.	.	8e-y/	.
.	.	.	.	.	8d/J	.
=15	=15	=15	=15	=15	=15	=15
4.E-y\	.	.	4.g/	.	4.e-y/	.
4.G\	p	6	4.b-y\	p	8b-y/L	p
.	.	.	.	.	8g/	.
.	.	.	.	.	8e-y/J	.
4.F\	.	-	2.a-X/	.	8cc/L	.
.	.	.	.	.	8a-X/	.
.	.	.	.	.	8f/J	.
4.BB-y/	.	7-r	.	.	8dd/L	.
.	.	.	.	.	8b-y/	.
.	.	.	.	.	8f/J	.
=16	=16	=16	=16	=16	=16	=16
4.EE-y/	.	.	4.g/	.	8ee-y/L	.
.	.	.	.	.	8g/	.
.	.	.	.	.	8e-y/J	.
4.G\	.	6	4.ee-y\	.	8b-y/L	.
.	.	.	.	.	8g/	.
.	.	.	.	.	8e-y/J	.
4.A-X\	.	6 5	4.f/	.	8cc\L	.
.	.	.	.	.	8dd\	.
.	.	.	.	.	8ee-y\J	.
4.B-y\	.	.	4.b-y\	.	8f/L	.
.	.	.	.	.	8e-y/	.
.	.	.	.	.	8d/J	.
=17	=17	=17	=17	=17	=17	=17
*>B1	*>B1	*>B1	*>B1	*>B1	*>B1	*>B1
4.E-y\	.	.	4.g/	.	4e-y/	.
.	.	.	.	.	8ee-y\	.
=1:|!	=1:|!	=1:|!	=1:|!	=1:|!	=1:|!	=1:|!
*>B2	*>B2	*>B2	*>B2	*>B2	*>B2	*>B2
4.E-y\	.	.	4.g/	.	4.e-y/	.
2.ryy	.	.	2.ryy	.	2.ryy	.
==	==	==	==	==	==	==
*-	*-	*-	*-	*-	*-	*-
!!!SMS: RV 65 / Estienne Roger (No. 363), Amsterdam [facs.]
!!!ENC: Fran Bennion   rev. 05/14/21 E Correia
!!!END: 2004/10/20
!!!ONB: Converted from MuseData with musedata2hum on Sat May 11 12:01:56 2024
!!!YEM: (C) 2004, 2019 Center for Computer Assisted Research in the Humanities
!!!system-decoration: [(s1,s2,s3)]
!!!URL-info: https://wiki.ccarh.org/wiki/MuseData:_Antonio_Vivaldi#Op._1:_Suonate_da_camera_a_tr.C3.A8.2C_due_violini_e_violone_o_cembalo Information about Vivaldi Op. 1 on the CCARH wiki
!!!URL-pdf: https://pdf.musedata.org/vivaldi-op01-no07.pdf#page=5 MuseData edition
!!!URL-pdf: https://s9.imslp.org/files/imglnks/usimg/1/18/IMSLP280399-PMLP10351-Vivaldi_Sonatas_Op_1_-_Violino_Primo.pdf#page=12 Violino primo part, Amsterdam: Estienne Roger, n.d.(ca.1723). Plate 363.
!!!URL-pdf: https://s9.imslp.org/files/imglnks/usimg/d/d5/IMSLP280400-PMLP10351-Vivaldi_Sonatas_Op_1_-_Violino_Secondo.pdf#page=10 Violino secondo part, Amsterdam: Estienne Roger, n.d.(ca.1723). Plate 363.
!!!URL-pdf: https://s9.imslp.org/files/imglnks/usimg/8/89/IMSLP280401-PMLP10351-Vivaldi_Sonatas_Op_1_-_Organo_e_Violoncello.pdf#page=11 Organo e Violoncello parts, Amsterdam: Estienne Roger, n.d.(ca.1723). Plate 363.
!!!URL-youtube: https://www.youtube.com/watch?v=P5HHPe_W6Uo&t=3453s L'Arte dell'Arco
!!!title: @{OTL}, mov. @{OMV}
!!!filter-vcross: vcross
!!!EEV: 2024/05/11
!!!source-file: https://bitbucket.org/musedata/vivaldi/src/master/roger/op1/no07/stage2/04/01
!!!source-file: https://bitbucket.org/musedata/vivaldi/src/master/roger/op1/no07/stage2/04/02
!!!source-file: https://bitbucket.org/musedata/vivaldi/src/master/roger/op1/no07/stage2/04/03
!!!source-file: https://bitbucket.org/musedata/vivaldi/src/master/roger/op1/no07/stage2/04/04
